X:1
T:Beverley's wedding
R:Hornpipe
C:Mike Grey arr. Adam Blaine
M:2/4
L:1/16
K:D
Q:1/4=84
[|:"second time only pickup" e2 | {g}A>e{A}e>A {g}d>B{g}A>e | {A}e>A{g}e>f {a}g>e{g}d>B | {g}G>d{G}d>G {g}B>A{g}G>B | {Gdc}d2{g}B<d {g}e>d{g}B<{d}G |
{g}A>e{A}e>A {g}d>B{g}A>e | {A}e>A{g}e>f {a}g>e{g}d>B | {g}G>{d}B{G}B>d {g}e>f{a}g>d | {gBd}B2{e}A2 {GAG}A2 :|]
[|: {g}e>f | {a}g>A{g}e>f {g}A>e{A}e>f | {a}g>Aa>f {a}g>e{g}d>B | {g}G>d{G}d>G {g}B>A{g}G>B | {Gdc}d2{g}B<d {g}e>d{g}B<{d}G |
[1 {a}g>A{g}e>f {g}A>e{A}e>f | {a}g>Aa>f {a}g>e{g}d>B | {g}G>{d}B{G}B>d {g}e>f{a}g>d | {gBd}B2{e}A2 {GAG}A2 :|]
[2 {g}A>e{A}e>A {gAGAG}A2{g}d>B | {g}A>e{A}e>f {a}g>e{g}d>B [M:3/4]| {g}G>{d}B{G}B>d {g}e>f{a}g>d {gBd}B2{e}A2 [M:6/8] | {GAG}A12 |]

